packages/core/src/svgs/tokens/mono/TKP.svg

<svg width="24" height="24" viewBox="0 0 24 24" fill="none" xmlns="http://www.w3.org/2000/svg">
<path d="M11.2738 12.1367L14.4623 8.10245C13.5394 7.40703 12.395 7.0711 11.2428 7.15732C10.0904 7.24354 9.00871 7.74601 8.19956 8.57101C7.38456 9.4035 6.89268 10.4991 6.81205 11.6615C6.73143 12.8237 7.06733 13.9766 7.75957 14.9138C8.44496 15.8446 9.44531 16.4946 10.5744 16.7427C11.7034 16.9908 12.8841 16.82 13.8966 16.2623C14.9111 15.6946 15.6897 14.7838 16.0931 13.6936C16.4963 12.6033 16.4975 11.4049 16.0965 10.3139L11.2738 12.1424V12.1367Z" fill="white"/>
<path d="M17.1988 9.35402C16.8783 8.47645 16.3131 7.70906 15.5702 7.14258L12.3989 11.1883L17.1988 9.35975V9.35402Z" fill="white"/>
<path d="M20.5997 8.61095L18.2626 9.51957C18.8552 11.1381 18.8506 12.9153 18.2493 14.5307C17.6479 16.1461 16.4894 17.4937 14.9826 18.3308C13.4803 19.1541 11.7295 19.4022 10.0575 19.0289C8.38554 18.6557 6.90663 17.6864 5.8971 16.3023C4.87536 14.9107 4.38313 13.2006 4.50881 11.4789C4.63448 9.75704 5.36983 8.1365 6.5828 6.90813C7.78672 5.68911 9.39354 4.95053 11.1027 4.83064C12.8117 4.71074 14.506 5.21771 15.8684 6.25671L17.4511 4.29674C16.0361 3.19299 14.3375 2.51228 12.5516 2.3333C10.7659 2.15431 8.96598 2.48437 7.35993 3.28533C5.74558 4.097 4.3891 5.34213 3.44244 6.88121C2.49577 8.42029 1.99631 10.1925 2.00002 11.9995C2.00002 15.8851 4.29141 19.3994 7.82277 20.9307C9.54953 21.6784 11.4592 21.8972 13.3104 21.5595C15.1616 21.2219 16.871 20.3429 18.2226 19.0337C19.5855 17.713 20.5355 16.0252 20.9575 14.175C21.3795 12.3247 21.2552 10.3918 20.5997 8.61095Z" fill="white"/>
<path d="M19.7602 3.86834C19.4572 3.59406 19.143 3.3312 18.8059 3.09692L17.2002 4.91404C18.2935 5.65883 19.1392 6.71349 19.6287 7.94255L22.0001 7.114C21.5027 5.88141 20.7376 4.77476 19.7602 3.87406V3.86834Z" fill="white"/>
</svg>

<svg xmlns="http://www.w3.org/2000/svg" width="24" height="24" fill="none" viewBox="0 0 24 24">
    <path fill="#fff" d="m11.274 12.137 3.188-4.035a4.76 4.76 0 0 0-6.262.469 4.9 4.9 0 0 0-.44 6.343 4.766 4.766 0 0 0 6.137 1.348 4.886 4.886 0 0 0 2.2-5.948l-4.823 1.828z"/>
    <path fill="#fff" d="M17.199 9.354a4.9 4.9 0 0 0-1.629-2.211l-3.17 4.045 4.8-1.828z"/>
    <path fill="#fff" d="m20.6 8.611-2.337.909a7.235 7.235 0 0 1-3.28 8.81 7.05 7.05 0 0 1-9.086-2.028 7.26 7.26 0 0 1 .686-9.394 7.045 7.045 0 0 1 9.285-.651l1.583-1.96A9.51 9.51 0 0 0 7.36 3.285 9.73 9.73 0 0 0 2 12c0 3.885 2.291 7.4 5.823 8.93a9.51 9.51 0 0 0 10.4-1.896A9.8 9.8 0 0 0 20.6 8.61"/>
    <path fill="#fff" d="M19.76 3.868a10 10 0 0 0-.954-.771L17.2 4.914a6.64 6.64 0 0 1 2.429 3.029L22 7.114a9 9 0 0 0-2.24-3.24z"/>
</svg>
